X:1
T:Home, Sweet Home
T:Home, Sweet Home
T:from Clari, the Maid of Milan (1821)Voice and Piano
T:Sir Henry Rowley Bishop(1786-1855)
T:J. H. Payne (1792-1852)
T:Scritto con MuseScore, un software libero e gratuito: http://musescore.org/it
T:Scritto con MuseScore, un software libero e gratuito: http://musescore.org/it
C:Sir Henry Rowley Bishop(1786-1855)
Z:J. H. Payne (1792-1852)
Z:Scritto con MuseScore, un software libero e gratuito: http://musescore.org/it
%%score 1 { ( 2 4 ) | 3 }
L:1/8
Q:1/4=75
M:4/4
K:F
V:1 treble nm="Voice"
V:2 treble nm="Piano"
V:4 treble 
V:3 bass 
V:1
!p!"^Andante" (F3/2 G/) | (A3 B)!<(! B3 c!<)! |!>(! c3 A!>)! (A2 c2) | (B3 A) B2 G2 | A6 F3/2 G/ | %5
w: 'Mid pleas-|* * yres and|pal- a\- ces _|though _ we may|roam, Be it|
 (A3 B)!<(! B3 c!<)! |!>(! c4 c2!>)! c2 | (B3 A) B2 G2 | F4 z2 c- c |!mf! (f3 e) d3 c | c4 A2 c2 | %11
w: ev- * er so|hum- ble there's|no _ place like|home. A _|charm _ from the|skies seems to|
 (B3 A)!>(! B2 G2!>)! | A6!<(! c c!<)! |!f! (f3 e) d3 c | c4 A2 c2 | c2!>(! B4 G2!>)! | F6 z2 | %17
w: hal- * low us|there, Which, *|seek _ thro' the|world is ne'er|met with else-|where.|
!p! c8 | (B4 G4) |!<(! F2 z2 G2!<)! z2 |!mf! A4!>(! z2 c2!>)! |!f! (f3 e) d3 c | c4 A2 c2 | %23
w: Home,|Home, _|Home sweet|home. There's|no _ place like|home, Oh, there's|
!>(! (B3 A) B2 G2!>)! | F6 :| %25
w: no _ place like|home.|
V:2
 F>G | [FA]3 B!<(! ([EB]3 c)!<)! |!>(! ([Ac]3 A)!>)! ([FA]2 [Ac]2) | ([EB]3 A [EB]2 [EG]2) | %4
 [FA]6 (F>G) | ([FA]3 B)!<(! ([EB]3 c)!<)! |!>(! ([Ac]4 [FA]2)!>)! [Ac]2 | ([EB]3 A [EB]2 [EG]2) | %8
 F4 z2 (cc) |!mf! ([Af]3 [Bd] [GB]3 [Ac]) | ([FAc]4 A2 [Ac]2) | (B3 A B2 G2) | %12
 [CFA]6!<(! ([Fc]c)!<)! |!f! ([Af]3 [ce] [Bd]3 [Ac]) | ([Ac]4 A2 [Ac]2) | %15
 ([Ac]2!>(! [EB]4 [B,EG]2)!>)! | [A,CF]6 z2 |!p! [FAc]8 | ([DGB]4 [DG]4) | %19
!<(! [CF]2 z2 [CG]2!<)! z2 |!mf! [CFA]4!>(! z2 c2!>)! |!f! ([Af]3 [ce] [Bd]3 [Ac]) | %22
 (c4 A2 [Ac]2) |!>(! ([Ec]3 A [EB]2 [B,EG]2)!>)! | [A,CF]6 :| %25
V:3
 z2 | (F,,C,F,C,) (G,,C,G,C,) | (F,,C,F,C,) (F,,C,F,C,) | (F,,C,G,C,) (F,,C,G,C,) | %4
 (F,,C,F,C,) (F,,C,F,C,) | (F,,C,F,C,) (F,,C,G,C,) | (F,,C,F,C,) (F,,C,F,C,) | %7
 (F,,C,G,C,) (F,,C,[E,B,]C,) | ([F,A,]C,A,,C, F,,2) z2 | (F,,C,[F,A,]C,) (B,,F,[B,D]F,) | %10
 (F,,C,[F,A,]C,) (F,,C,[F,A,]C,) | (G,,C,G,C,) (G,,C,[E,B,]C,) | (F,,C,F,E, D,C,A,,G,,) | %13
 (G,,C,[F,A,]C,) (B,,D,[B,D]F,) | (G,,C,[F,A,]C,) (F,,C,[F,A,]C,) | (F,,C,G,C,) (G,,C,G,C,) | %16
 (F,C,A,,C, F,,2) z2 | z (C,F,A, CA,F,C,) | z (B,,D,G, B,G,D,B,,) | [C,F,A,]2 z2 [C,E,B,]2 z2 | %20
 [F,,F,]4 z4 | (F,,C,[F,A,](C,) B,,F,[B,D]F,) | (F,,C,[F,A,]C,) (F,,C,[F,A,]E,) | %23
 (C,,C,[E,B,]C,) (C,,C,G,C,) | (F,C,A,,C, F,,2) :| %25
V:4
 x2 | x8 | x8 | x8 | x8 | x8 | x8 | x8 | x8 | F8 | x8 | E8 | x8 | F8 | F8 | x8 | x8 | x8 | x8 | %19
 x8 | x8 | F8 | F8 | x8 | x6 :| %25

